icons/folder-debug.svg

<svg xmlns="http://www.w3.org/2000/svg" viewBox="0 0 16 16">
<path id="folder" fill="#f9a825" d="m6.922 3.768-.644-.536A1 1 0 0 0 5.638 3H2a1 1 0 0 0-1 1v8a1 1 0 0 0 1 1h12a1 1 0 0 0 1-1V5a1 1 0 0 0-1-1H7.562a1 1 0 0 1-.64-.232" />
<path id="motive" fill="#fff9c4" d="M 16,9.0001098 V 8.0000829 H 14.8265 A 2.9999999,3.0000826 0 0 0 13.968,6.7390479 L 15,5.707019 14.293,5 13.087,6.2060329 a 2.9699999,2.9700818 0 0 0 -2.1735,0 L 9.707,5 9,5.707019 10.032,6.7390479 A 2.9999999,3.0000826 0 0 0 9.1735,8.0000829 H 8 V 9.0001098 H 9 V 10.000138 H 8 v 1.000027 h 1 v 1.000028 H 8 v 1.000028 h 1.1745 a 2.9959999,2.9960825 0 0 0 5.651,0 H 16 v -1.000028 h -1 v -1.000028 h 1 V 10.000138 H 15 V 9.0001098 Z m -3,4.0001112 h -2 v -1.000028 h 2 z m 0,-3.000083 H 11 V 9.0001098 h 2 z" />
</svg>

<svg xmlns="http://www.w3.org/2000/svg" viewBox="0 0 16 16"><path id="folder" fill="#f9a825" d="m6.922 3.768-.644-.536A1 1 0 0 0 5.638 3H2a1 1 0 0 0-1 1v8a1 1 0 0 0 1 1h12a1 1 0 0 0 1-1V5a1 1 0 0 0-1-1H7.562a1 1 0 0 1-.64-.232"/><path id="motive" fill="#fff9c4" d="M16 9V8h-1.174a3 3 0 0 0-.858-1.261L15 5.707 14.293 5l-1.206 1.206a2.97 2.97 0 0 0-2.173 0L9.706 5 9 5.707l1.032 1.032A3 3 0 0 0 9.174 8H8v1h1v1H8v1h1v1H8v1h1.175a2.996 2.996 0 0 0 5.65 0H16v-1h-1v-1h1v-1h-1V9Zm-3 4h-2v-1h2zm0-3h-2V9h2z"/></svg>
